public/images/farms/bake-bnb.svg

<svg width="186" height="171" viewBox="0 0 186 171" fill="none" xmlns="http://www.w3.org/2000/svg">
<path d="M67.045 119.028C63.8667 131.172 82.0449 146.449 107.647 153.149C133.25 159.849 156.581 155.436 159.759 143.291C162.937 131.146 144.759 115.87 119.157 109.169C93.5546 102.469 70.2233 106.883 67.045 119.028Z" fill="#606063"/>
<path d="M155.924 149.273L171.346 132.988L61.9922 104.369L67.7128 126.187L155.924 149.273Z" fill="#606063"/>
<path d="M68.9337 108.293L27.0725 97.338C25.258 96.8632 23.4126 97.9924 23.0096 99.8242L22.5414 101.953C21.6084 106.194 24.1195 110.433 28.2875 111.653L70.0994 123.892L68.9337 108.293Z" fill="#606063"/>
<path d="M62.2026 98.7096C58.5089 112.824 80.5267 130.811 111.381 138.886C142.235 146.96 170.241 142.064 173.935 127.95C177.629 113.836 155.611 95.8488 124.757 87.7742C93.9028 79.6996 65.8963 84.5955 62.2026 98.7096Z" fill="url(#paint0_linear)"/>
<path fill-rule="evenodd" clip-rule="evenodd" d="M146.673 123.286C153.771 128.506 157.919 134.152 158.538 139.157L161.516 138.789C160.744 132.551 155.779 126.258 148.45 120.869C141.061 115.434 131.011 110.721 119.537 107.718C108.063 104.716 96.9927 103.901 87.888 105.019C78.8593 106.128 71.4479 109.182 67.7196 114.242L70.1348 116.021C73.1263 111.961 79.5082 109.071 88.2536 107.997C96.9231 106.933 107.608 107.698 118.777 110.621C129.946 113.544 139.636 118.111 146.673 123.286Z" fill="#606063"/>
<path fill-rule="evenodd" clip-rule="evenodd" d="M75.7343 118.739C67.0136 111.615 63.7365 104.698 65.1049 99.4692C66.4733 94.2403 72.7186 89.8155 83.8112 87.8763C94.6178 85.9872 108.889 86.7226 123.997 90.6764C139.105 94.6302 151.908 100.98 160.403 107.921C169.124 115.045 172.401 121.962 171.033 127.191C169.664 132.42 163.419 136.844 152.326 138.784C141.52 140.673 127.248 139.937 112.14 135.984C97.0323 132.03 84.2301 125.68 75.7343 118.739ZM111.381 138.886C80.5267 130.811 58.5089 112.824 62.2026 98.7096C65.8963 84.5955 93.9028 79.6996 124.757 87.7742C155.611 95.8488 177.629 113.836 173.935 127.95C170.241 142.064 142.235 146.96 111.381 138.886Z" fill="#979797"/>
<path fill-rule="evenodd" clip-rule="evenodd" d="M64.1673 124.049L59.2305 104.926L62.1352 104.176L67.0721 123.299L64.1673 124.049Z" fill="url(#paint1_linear)"/>
<path fill-rule="evenodd" clip-rule="evenodd" d="M62.4691 106.189C62.4241 106.041 62.3812 105.893 62.3406 105.746C62.2656 105.473 62.1983 105.2 62.1386 104.929L61.997 104.389C61.9948 104.38 62.0025 104.372 62.0109 104.375C62.019 104.377 62.0266 104.37 62.0251 104.362C62.0236 104.353 62.0222 104.345 62.0207 104.337C61.9732 104.072 61.9333 103.807 61.9009 103.543C61.8931 103.479 61.8857 103.416 61.8788 103.352C61.8065 102.689 61.7824 102.031 61.8078 101.378C61.8079 101.378 61.8079 101.378 61.8079 101.377C61.8432 100.475 61.9734 99.5849 62.2025 98.7095C65.8962 84.5954 93.9027 79.6994 124.757 87.774C155.611 95.8486 177.629 113.836 173.935 127.95C173.706 128.826 173.383 129.666 172.972 130.469C172.972 130.469 172.972 130.47 172.972 130.47C172.528 131.338 171.981 132.163 171.337 132.945C171.332 132.951 171.326 132.958 171.321 132.964C171.319 132.967 171.318 132.969 171.318 132.972C171.318 132.977 171.322 132.982 171.327 132.983C171.332 132.984 171.335 132.989 171.336 132.993C171.336 132.996 171.335 133 171.333 133.002L170.725 133.644C170.655 133.72 170.584 133.795 170.511 133.87L169.275 135.175L169.273 135.177L157.793 147.299C150.986 156.33 130.197 159.051 107.647 153.149C85.3446 147.312 68.6757 134.967 66.8505 123.854C66.7571 123.285 66.3667 122.8 65.8135 122.639L29.1271 111.91C24.9834 110.698 22.4722 106.499 23.3648 102.275L23.8239 100.103C24.2137 98.2581 26.0655 97.1133 27.8898 97.589L62.1386 106.52C62.3391 106.573 62.5217 106.39 62.4691 106.189ZM58.8119 102.553C58.7482 101.009 58.9029 99.4681 59.3002 97.9499C61.6255 89.0648 71.2303 83.9845 82.7779 81.9658C94.6114 79.8971 109.77 80.751 125.516 84.8718C141.262 88.9926 154.896 95.6738 164.199 103.274C173.277 110.691 179.162 119.825 176.837 128.71C176.28 130.839 175.285 132.774 173.936 134.499C173.821 134.697 173.679 134.887 173.511 135.065L172.923 135.686C172.92 135.689 172.916 135.693 172.913 135.697C172.836 135.779 172.759 135.861 172.68 135.943C172.677 135.946 172.673 135.95 172.67 135.953L160.082 149.246C155.911 154.652 148.056 157.706 138.984 158.802C129.684 159.926 118.467 159.082 106.888 156.051C95.4351 153.054 85.3397 148.366 77.8095 142.91C70.73 137.78 65.4882 131.648 64.0667 125.253L28.285 114.789C22.6362 113.137 19.2128 107.413 20.4296 101.655L20.8887 99.4823C21.6325 95.9628 25.166 93.7783 28.6468 94.6861L58.8119 102.553Z" fill="url(#paint2_linear)"/>
<circle cx="76" cy="29" r="29" fill="#F0B90B"/>
<path d="M65.1846 28.9998L60.7476 33.4676L56.2798 28.9998L60.7476 24.532L65.1846 28.9998ZM75.9998 18.1846L83.6413 25.8261L88.1091 21.3583L80.4676 13.7476L75.9998 9.27979L71.532 13.7476L63.9213 21.3583L68.3891 25.8261L75.9998 18.1846ZM91.252 24.532L86.815 28.9998L91.2828 33.4676L95.7198 28.9998L91.252 24.532ZM75.9998 39.815L68.3583 32.1735L63.9213 36.6413L71.5628 44.2828L75.9998 48.7198L80.4676 44.252L88.1091 36.6105L83.6413 32.1735L75.9998 39.815ZM75.9998 33.4676L80.4676 28.9998L75.9998 24.532L71.532 28.9998L75.9998 33.4676Z" fill="#FFFDFA"/>
<g style="mix-blend-mode:multiply" opacity="0.1">
<circle cx="76" cy="29" r="27.5" stroke="#191326" stroke-width="3"/>
</g>
<circle cx="125.5" cy="72.5" r="43.5" fill="#FFF3E0"/>
<path d="M138.275 71.5837C138.669 71.4805 139.07 71.7293 139.167 72.1299L139.81 74.7879C139.907 75.1824 139.665 75.589 139.27 75.6861C138.876 75.7893 138.475 75.5405 138.378 75.1399L137.735 72.4819C137.638 72.0874 137.88 71.6808 138.275 71.5837ZM118.339 52.1459C118.115 51.7939 118.218 51.3387 118.546 51.1142L120.815 49.6152C121.161 49.3907 121.616 49.4939 121.841 49.8276C122.066 50.1796 121.962 50.6348 121.635 50.8593L119.365 52.3583C119.025 52.5889 118.57 52.4857 118.339 52.1459Z" fill="#FFFDFA"/>
<path fill-rule="evenodd" clip-rule="evenodd" d="M135.035 64.7936C132.137 64.1406 129.026 64.6776 126.478 66.4061C130.315 65.1204 134.728 66.011 137.781 69.0981C142.08 73.4441 142.08 80.5222 137.781 84.8682C137.265 85.3905 136.703 85.8526 136.107 86.2476C137.681 85.7052 139.167 84.8213 140.42 83.5557C143.459 80.4826 144.35 76.0433 143.091 72.17C139.583 70.7867 136.711 68.1414 135.035 64.7936Z" fill="#FFAE54"/>
<path fill-rule="evenodd" clip-rule="evenodd" d="M128.684 53.7855C129 50.793 127.535 47.3472 124.528 47.4757C116.143 47.8338 108.142 52.4891 103.823 60.4717C97.2626 72.5968 101.674 87.7988 113.666 94.4197C125.658 101.041 140.714 96.6044 147.274 84.4792C149.607 80.1711 150.554 75.4745 150.266 70.9121C150.145 68.9893 147.971 68.0752 146.114 68.5868C144.942 68.9095 143.708 69.0819 142.434 69.0819C134.798 69.0819 128.607 62.8914 128.607 55.2551C128.607 54.7587 128.633 54.2684 128.684 53.7855ZM130.349 63.6092C125.506 60.9329 119.413 62.7414 116.767 67.6266C114.121 72.5119 115.905 78.6655 120.748 81.3418C125.591 84.018 131.684 82.2096 134.33 77.3243C136.97 72.4391 135.192 66.2855 130.349 63.6092Z" fill="url(#paint3_radial)"/>
<path fill-rule="evenodd" clip-rule="evenodd" d="M145.635 83.5921L145.635 83.5915C147.796 79.6007 148.672 75.2538 148.406 71.0293C148.394 70.8405 148.309 70.6583 147.992 70.4959C147.636 70.3141 147.111 70.246 146.609 70.3841C145.278 70.7509 143.877 70.9462 142.434 70.9462C140.585 70.9462 138.811 70.6264 137.164 70.0393C137.72 72.7286 137.369 75.621 135.97 78.2106L135.969 78.2122C132.835 83.9986 125.605 86.156 119.846 82.9735C114.101 79.7982 111.998 72.5167 115.128 66.7388C117.644 62.0934 122.8 59.7868 127.715 60.7046C127.086 59.0071 126.743 57.1712 126.743 55.2551C126.743 54.6931 126.772 54.1374 126.83 53.5896C126.953 52.4247 126.715 51.2208 126.237 50.3911C125.787 49.6098 125.246 49.311 124.608 49.3382C116.857 49.6693 109.459 53.9719 105.462 61.3588C99.3844 72.5928 103.48 86.6663 114.567 92.7876C125.646 98.9043 139.564 94.8126 145.635 83.5921ZM130.042 61.3955C129.123 59.5455 128.607 57.4606 128.607 55.2551C128.607 54.7587 128.633 54.2684 128.684 53.7855C129 50.793 127.535 47.3472 124.528 47.4757C116.143 47.8338 108.142 52.4891 103.823 60.4717C97.2626 72.5969 101.674 87.7988 113.666 94.4197C125.658 101.041 140.714 96.6044 147.274 84.4793C149.607 80.1711 150.554 75.4745 150.266 70.9121C150.145 68.9893 147.971 68.0752 146.114 68.5868C144.942 68.9095 143.708 69.0819 142.434 69.0819C140.284 69.0819 138.249 68.5912 136.434 67.7158C134.138 66.6081 132.194 64.8844 130.819 62.7591C130.535 62.321 130.275 61.8659 130.042 61.3955ZM128.723 62.8907C124.216 61.3649 119.124 63.2752 116.767 67.6266C114.121 72.5119 115.905 78.6655 120.748 81.3418C125.591 84.018 131.684 82.2096 134.33 77.3243C135.754 74.6881 135.892 71.6826 134.957 69.0534C134.158 66.8104 132.578 64.8413 130.349 63.6092C129.82 63.3168 129.276 63.0779 128.723 62.8907Z" fill="#AC562A"/>
<path d="M128.784 53.0437C129.196 50.4661 127.898 47.4439 125.287 47.465C122.053 47.491 118.821 48.1534 115.791 49.4514C110.068 52.1641 113.533 65.2481 123.722 62.5415C126.836 61.9892 130.143 62.9238 132.546 65.3452C136.266 69.1077 136.487 75.0563 133.113 79.0252C133.774 79.1465 134.937 78.8661 136.758 77.7252C138.196 76.827 139.816 77.7191 140.344 79.2302C140.83 80.6119 140.199 81.8219 139.568 83.0329C139.221 83.6994 138.874 84.3663 138.712 85.0622C138.245 87.083 138.76 89.1767 140.939 89.7532C141.892 90.0021 143.045 89.5833 144.216 88.8369C148.579 83.7314 150.568 77.2775 150.186 70.9449C150.07 69.0251 147.905 68.1038 146.048 68.6052C144.896 68.9163 143.685 69.0823 142.434 69.0823C134.798 69.0823 128.608 62.8918 128.608 55.2555C128.608 54.5112 128.669 53.7693 128.784 53.0437Z" fill="#AC562A"/>
<path fill-rule="evenodd" clip-rule="evenodd" d="M134.876 69.0094C135.805 71.545 135.696 74.3737 134.532 76.8298C134.164 77.6058 133.692 78.3446 133.113 79.0252C133.666 79.1267 134.571 78.947 135.918 78.2174C136.181 78.0749 136.46 77.9116 136.758 77.7252C138.196 76.827 139.816 77.7191 140.344 79.2302C140.83 80.6119 140.199 81.8219 139.568 83.0329C139.221 83.6994 138.874 84.3663 138.712 85.0622C138.245 87.083 138.76 89.1767 140.939 89.7532C141.892 90.0021 143.045 89.5833 144.216 88.8369C148.579 83.7314 150.568 77.2775 150.186 70.9449C150.07 69.0251 147.905 68.1038 146.048 68.6052C144.896 68.9163 143.685 69.0823 142.434 69.0823C140.25 69.0823 138.184 68.5757 136.347 67.6737C135.017 67.0205 133.807 66.1598 132.76 65.1339C132.76 65.1338 132.76 65.1336 132.759 65.1335C131.673 64.0697 130.762 62.8282 130.073 61.4561C129.135 59.5912 128.608 57.4849 128.608 55.2555C128.608 54.5112 128.669 53.7693 128.784 53.0437C129.196 50.4661 127.898 47.4439 125.287 47.465C122.053 47.491 118.821 48.1534 115.791 49.4514C110.068 52.1641 113.533 65.2481 123.722 62.5415C125.4 62.2439 127.134 62.3781 128.753 62.9441C130.138 63.4284 131.438 64.2287 132.546 65.3452C133.609 66.4205 134.387 67.6743 134.876 69.0094ZM127.729 60.7409C127.092 59.0334 126.743 57.1851 126.743 55.2555C126.743 54.4099 126.813 53.5697 126.943 52.75C127.089 51.8358 126.918 50.8649 126.541 50.1876C126.185 49.5497 125.763 49.3255 125.302 49.3292C122.325 49.3532 119.35 49.9604 116.561 51.1496C115.792 51.5256 115.238 52.2768 115.009 53.3958C114.774 54.5465 114.923 55.9619 115.499 57.2844C116.07 58.5962 117.014 59.7128 118.256 60.374C119.47 61.0202 121.107 61.3072 123.244 60.7397L123.32 60.7195L123.397 60.7058C124.831 60.4515 126.301 60.4632 127.729 60.7409ZM137.1 70.0167C137.493 71.8698 137.445 73.7973 136.952 75.6312C137.886 75.3882 138.837 75.4965 139.672 75.8808C140.819 76.4088 141.687 77.4211 142.104 78.6138C142.861 80.7722 141.878 82.6448 141.301 83.743C141.273 83.7952 141.247 83.8457 141.222 83.8943C140.851 84.6048 140.627 85.0588 140.528 85.4829C140.353 86.2405 140.403 86.8573 140.562 87.2506C140.688 87.5642 140.904 87.8146 141.412 87.9499C141.553 87.9854 142.044 87.9634 142.984 87.4064C146.892 82.7183 148.674 76.8376 148.325 71.0574C148.313 70.8685 148.228 70.6861 147.913 70.5228C147.56 70.34 147.036 70.2696 146.534 70.405C145.225 70.7585 143.85 70.9465 142.434 70.9465C140.562 70.9465 138.766 70.6185 137.1 70.0167Z" fill="#AC562A"/>
<path d="M108.721 66.9069C108.721 67.5933 108.165 68.1498 107.478 68.1498C106.792 68.1498 106.236 67.5933 106.236 66.9069C106.236 66.2205 106.792 65.6641 107.478 65.6641C108.165 65.6641 108.721 66.2205 108.721 66.9069Z" fill="#AC562A"/>
<path d="M126.743 88.6569C126.743 89.3433 126.186 89.8998 125.5 89.8998C124.814 89.8998 124.257 89.3433 124.257 88.6569C124.257 87.9705 124.814 87.4141 125.5 87.4141C126.186 87.4141 126.743 87.9705 126.743 88.6569Z" fill="#AC562A"/>
<path d="M119.907 89.7443C119.907 90.8597 119.003 91.7639 117.887 91.7639C116.772 91.7639 115.868 90.8597 115.868 89.7443C115.868 88.6288 116.772 87.7246 117.887 87.7246C119.003 87.7246 119.907 88.6288 119.907 89.7443Z" fill="#AC562A"/>
<g style="mix-blend-mode:multiply" opacity="0.2">
<circle cx="125.5" cy="72.5" r="42.0815" stroke="#191326" stroke-width="2.83696"/>
</g>
<defs>
<linearGradient id="paint0_linear" x1="124.757" y1="87.7742" x2="111.381" y2="138.886" gradientUnits="userSpaceOnUse">
<stop stop-color="#404042"/>
<stop offset="1" stop-color="#48484B"/>
</linearGradient>
<linearGradient id="paint1_linear" x1="65.5673" y1="105.096" x2="60.7353" y2="123.129" gradientUnits="userSpaceOnUse">
<stop stop-color="#404042"/>
<stop offset="1" stop-color="#48484B"/>
</linearGradient>
<linearGradient id="paint2_linear" x1="92.4948" y1="80.1687" x2="108.09" y2="164.62" gradientUnits="userSpaceOnUse">
<stop stop-color="#404042"/>
<stop offset="1" stop-color="#48484B"/>
</linearGradient>
<radialGradient id="paint3_radial" cx="0" cy="0" r="1" gradientUnits="userSpaceOnUse" gradientTransform="translate(125.55 72.4716) rotate(90) scale(25.0185 24.7664)">
<stop offset="0.333505" stop-color="#F7B450"/>
<stop offset="0.64773" stop-color="#FFC977"/>
<stop offset="1" stop-color="#FF9900"/>
</radialGradient>
</defs>
</svg>

<svg xmlns="http://www.w3.org/2000/svg" width="186" height="171" fill="none"  xmlns:v="https://vecta.io/nano"><g fill="#606063"><path d="M67.045 119.028c-3.178 12.144 15 27.421 40.602 34.121s48.934 2.287 52.112-9.858-15-27.421-40.602-34.122-48.934-2.286-52.112 9.859z"/><path d="M155.924 149.273l15.422-16.285-109.354-28.619 5.721 21.818 88.211 23.086z"/><path d="M68.934 108.293L27.073 97.338c-1.815-.475-3.66.654-4.063 2.486l-.468 2.129a8.26 8.26 0 0 0 5.746 9.7l41.812 12.239-1.166-15.599z"/></g><path d="M62.203 98.71c-3.694 14.114 18.324 32.101 49.178 40.176s58.86 3.178 62.554-10.936-18.324-32.101-49.178-40.176-58.861-3.179-62.554 10.935z" fill="url(#A)"/><g fill-rule="evenodd"><path d="M146.673 123.286c7.098 5.22 11.246 10.866 11.865 15.871l2.978-.368c-.772-6.238-5.737-12.531-13.066-17.92-7.389-5.435-17.439-10.148-28.913-13.151s-22.544-3.817-31.649-2.699c-9.029 1.109-16.44 4.163-20.168 9.223l2.415 1.779c2.992-4.06 9.373-6.95 18.119-8.024 8.67-1.064 19.354-.299 30.523 2.624s20.859 7.49 27.896 12.665z" fill="#606063"/><path d="M75.734 118.739c-8.721-7.124-11.998-14.041-10.629-19.27s7.614-9.654 18.706-11.593c10.807-1.889 25.078-1.154 40.186 2.8s27.911 10.304 36.406 17.245c8.721 7.124 11.998 14.041 10.63 19.27s-7.614 9.653-18.707 11.593c-10.806 1.889-25.078 1.153-40.186-2.8s-27.91-10.304-36.406-17.245zm35.647 20.147c-30.854-8.075-52.872-26.062-49.178-40.176s31.7-19.01 62.554-10.935 52.872 26.062 49.178 40.176-31.7 19.01-62.554 10.936z" fill="#979797"/><path d="M64.167 124.049l-4.937-19.123 2.905-.75 4.937 19.123-2.905.75z" fill="url(#B)"/><path d="M62.469 106.189l-.128-.443-.202-.817-.142-.54c.022-.012.03-.019.028-.027l-.004-.025-.12-.794-.022-.191c-.072-.663-.096-1.321-.071-1.974.035-.903.166-1.793.395-2.668 3.694-14.114 31.7-19.01 62.555-10.936s52.872 26.062 49.178 40.176a12.4 12.4 0 0 1-.963 2.519 13.7 13.7 0 0 1-1.635 2.476l-.016.019c.011.02.014.025.015.029l-.611.651-12.932 13.655c-6.807 9.031-27.596 11.752-50.146 5.85-22.302-5.837-38.971-18.182-40.797-29.295-.093-.569-.484-1.054-1.037-1.215L29.127 111.91a8.26 8.26 0 0 1-5.762-9.635l.459-2.172c.39-1.845 2.242-2.99 4.066-2.514l34.249 8.931a.27.27 0 0 0 .331-.331zm-3.657-3.636c-.064-1.544.091-3.085.488-4.603 2.325-8.885 11.93-13.965 23.478-15.984 11.834-2.069 26.992-1.215 42.738 2.906s29.38 10.802 38.683 18.402c9.078 7.417 14.963 16.551 12.638 25.436-.557 2.129-1.552 4.064-2.901 5.789a3.08 3.08 0 0 1-.425.566l-13.429 14.181c-4.171 5.406-12.026 8.46-21.098 9.556-9.3 1.124-20.517.28-32.096-2.751-11.453-2.997-21.548-7.685-29.079-13.141-7.079-5.13-12.321-11.262-13.743-17.657l-35.782-10.464a11.26 11.26 0 0 1-7.855-13.134l.459-2.173c.744-3.519 4.277-5.704 7.758-4.796l30.165 7.867z" fill="url(#C)"/></g><circle cx="76" cy="29" r="29" fill="#f0b90b"/><path d="M65.185 29l-4.437 4.468L56.28 29l4.468-4.468L65.185 29zM76 18.185l7.642 7.642 4.468-4.468-7.641-7.611L76 9.28 63.921 21.358l4.468 4.468L76 18.185zm15.252 6.347L86.815 29l4.468 4.468L95.72 29l-4.468-4.468zM76 39.815l-7.641-7.642-4.437 4.468L76 48.72l12.109-12.109-4.468-4.437L76 39.815zm0-6.347L80.468 29 76 24.532 71.532 29 76 33.468z" fill="#fffdfa"/><circle cx="76" cy="29" r="27.5" stroke="#191326" stroke-width="3" style="mix-blend-mode:multiply" opacity=".1"/><circle cx="125.5" cy="72.5" r="43.5" fill="#fff3e0"/><path d="M138.275 71.584c.394-.103.795.146.892.546l.643 2.658c.097.395-.145.801-.54.898-.394.103-.795-.146-.892-.546l-.643-2.658c-.097-.394.145-.801.54-.898zm-19.936-19.438a.76.76 0 0 1 .207-1.032l2.269-1.499c.346-.224.801-.121 1.026.212a.76.76 0 0 1-.206 1.032l-2.27 1.499c-.34.231-.795.127-1.026-.212z" fill="#fffdfa"/><g fill-rule="evenodd"><path d="M135.035 64.794a10.96 10.96 0 0 0-8.557 1.612c3.837-1.286 8.25-.395 11.303 2.692 4.299 4.346 4.299 11.424 0 15.77-.516.522-1.078.984-1.674 1.379 1.574-.542 3.06-1.426 4.313-2.692 3.039-3.073 3.93-7.512 2.671-11.386a15.31 15.31 0 0 1-8.056-7.376z" fill="#ffae54"/><path d="M128.684 53.786c.316-2.992-1.149-6.438-4.156-6.31-8.385.358-16.386 5.013-20.705 12.996-6.56 12.125-2.149 27.327 9.843 33.948s27.048 2.185 33.608-9.94c2.333-4.308 3.28-9.005 2.992-13.567-.121-1.923-2.295-2.837-4.152-2.325-1.172.323-2.406.495-3.68.495a13.83 13.83 0 0 1-13.827-13.827 13.99 13.99 0 0 1 .077-1.47zm1.665 9.824c-4.843-2.676-10.936-.868-13.582 4.017s-.862 11.039 3.981 13.715 10.936.868 13.582-4.018c2.64-4.885.862-11.039-3.981-13.715z" fill="url(#D)"/><path d="M145.635 83.592h0a23.24 23.24 0 0 0 2.771-12.562c-.012-.189-.097-.371-.414-.533-.356-.182-.881-.25-1.383-.112a15.7 15.7 0 0 1-4.175.562c-1.849 0-3.623-.32-5.27-.907.556 2.689.205 5.582-1.194 8.171l-.001.002c-3.134 5.786-10.364 7.944-16.123 4.761-5.745-3.175-7.848-10.457-4.718-16.235 2.516-4.645 7.672-6.952 12.587-6.034a15.65 15.65 0 0 1-.972-5.449c0-.562.029-1.118.087-1.666.123-1.165-.115-2.369-.593-3.198-.45-.781-.991-1.08-1.629-1.053-7.751.331-15.149 4.634-19.146 12.021-6.078 11.234-1.982 25.308 9.105 31.429 11.079 6.117 24.997 2.025 31.068-9.195zm-15.593-22.197c-.919-1.85-1.435-3.935-1.435-6.14a13.99 13.99 0 0 1 .077-1.47c.316-2.992-1.149-6.438-4.156-6.31-8.385.358-16.386 5.013-20.705 12.996-6.56 12.125-2.149 27.327 9.843 33.948s27.048 2.185 33.608-9.94c2.333-4.308 3.28-9.005 2.992-13.567-.121-1.923-2.295-2.837-4.152-2.325-1.172.323-2.406.495-3.68.495-2.15 0-4.185-.491-6-1.366-2.296-1.108-4.24-2.831-5.615-4.957-.284-.438-.544-.893-.777-1.364zm-1.319 1.495c-4.507-1.526-9.599.384-11.956 4.736-2.646 4.885-.862 11.039 3.981 13.715s10.936.868 13.582-4.018a10.19 10.19 0 0 0 .627-8.271c-.799-2.243-2.379-4.212-4.608-5.444-.529-.292-1.073-.531-1.626-.718z" fill="#ac562a"/></g><path d="M128.784 53.044c.412-2.578-.886-5.6-3.497-5.579a24.62 24.62 0 0 0-9.496 1.986c-5.723 2.713-2.258 15.797 7.931 13.09a9.94 9.94 0 0 1 8.824 2.804c3.72 3.762 3.941 9.711.567 13.68.661.121 1.824-.159 3.645-1.3 1.438-.898 3.058-.006 3.586 1.505.486 1.382-.145 2.592-.776 3.803-.347.666-.694 1.333-.856 2.029-.467 2.021.048 4.114 2.227 4.691.953.249 2.106-.17 3.277-.916 4.363-5.106 6.352-11.559 5.97-17.892-.116-1.92-2.281-2.841-4.138-2.34a13.84 13.84 0 0 1-3.614.477 13.83 13.83 0 0 1-13.826-13.827c0-.744.061-1.486.176-2.212z" fill="#ac562a"/><path fill-rule="evenodd" d="M134.876 69.009c.929 2.536.82 5.364-.344 7.82a9.99 9.99 0 0 1-1.419 2.195c.553.102 1.458-.078 2.805-.808l.84-.492c1.438-.898 3.058-.006 3.586 1.505.486 1.382-.145 2.592-.776 3.803-.347.666-.694 1.333-.856 2.029-.467 2.021.048 4.114 2.227 4.691.953.249 2.106-.17 3.277-.916 4.363-5.106 6.352-11.559 5.97-17.892-.116-1.92-2.281-2.841-4.138-2.34a13.84 13.84 0 0 1-3.614.477c-2.184 0-4.25-.507-6.087-1.409-1.33-.653-2.54-1.514-3.587-2.54-1.087-1.064-1.998-2.306-2.687-3.678a13.76 13.76 0 0 1-1.465-6.201c0-.744.061-1.486.176-2.212.412-2.578-.886-5.6-3.497-5.579a24.62 24.62 0 0 0-9.496 1.986c-5.723 2.713-2.258 15.797 7.931 13.09a9.97 9.97 0 0 1 8.824 2.804 10.19 10.19 0 0 1 2.33 3.664zm-7.147-8.268c-.637-1.708-.986-3.556-.986-5.485a16.02 16.02 0 0 1 .2-2.505c.146-.914-.025-1.885-.402-2.562-.356-.638-.778-.862-1.239-.858a22.76 22.76 0 0 0-8.741 1.82c-.769.376-1.323 1.127-1.552 2.246-.235 1.151-.086 2.566.49 3.889.571 1.312 1.515 2.428 2.757 3.09 1.214.646 2.851.933 4.988.366l.076-.02.077-.014a11.86 11.86 0 0 1 4.332.035zm9.371 9.276a12.03 12.03 0 0 1-.148 5.615c.934-.243 1.885-.135 2.72.25 1.147.528 2.015 1.54 2.432 2.733.757 2.158-.226 4.031-.803 5.129l-.079.151c-.371.71-.595 1.165-.694 1.589-.175.758-.125 1.374.034 1.768.126.314.342.564.85.699.141.035.632.013 1.572-.543 3.908-4.688 5.69-10.569 5.341-16.349-.012-.189-.097-.371-.412-.535-.353-.183-.877-.253-1.379-.118a15.71 15.71 0 0 1-4.1.541 15.67 15.67 0 0 1-5.334-.93z" fill="#ac562a"/><path d="M108.721 66.907c0 .686-.556 1.243-1.243 1.243a1.24 1.24 0 0 1-1.242-1.243c0-.687.556-1.243 1.242-1.243s1.243.556 1.243 1.243zm18.022 21.75c0 .686-.557 1.243-1.243 1.243s-1.243-.556-1.243-1.243.557-1.243 1.243-1.243 1.243.556 1.243 1.243zm-6.836 1.087a2.02 2.02 0 0 1-2.02 2.02 2.02 2.02 0 0 1 0-4.04 2.02 2.02 0 0 1 2.02 2.02z" fill="#ac562a"/><circle cx="125.5" cy="72.5" r="42.082" stroke="#191326" stroke-width="2.837" style="mix-blend-mode:multiply" opacity=".2"/><defs><linearGradient id="A" x1="124.757" y1="87.774" x2="111.381" y2="138.886" gradientUnits="userSpaceOnUse"><stop stop-color="#404042"/><stop offset="1" stop-color="#48484b"/></linearGradient><linearGradient id="B" x1="65.567" y1="105.096" x2="60.735" y2="123.129" gradientUnits="userSpaceOnUse"><stop stop-color="#404042"/><stop offset="1" stop-color="#48484b"/></linearGradient><linearGradient id="C" x1="92.495" y1="80.169" x2="108.09" y2="164.62" gradientUnits="userSpaceOnUse"><stop stop-color="#404042"/><stop offset="1" stop-color="#48484b"/></linearGradient><radialGradient id="D" cx="0" cy="0" r="1" gradientUnits="userSpaceOnUse" gradientTransform="translate(125.55 72.4716) rotate(90) scale(25.0185 24.7664)"><stop offset=".334" stop-color="#f7b450"/><stop offset=".648" stop-color="#ffc977"/><stop offset="1" stop-color="#f90"/></radialGradient></defs></svg>
